dist/svg/object-based/bee_64.svg

<svg xmlns="http://www.w3.org/2000/svg" viewBox="0 0 64 64"><path d="M23.687 27h16.627c-1.793-2.41-4.846-4-8.313-4s-6.52 1.59-8.313 4zM22.065 31c-.042.328-.065.662-.065 1v3h20v-3c0-.338-.023-.672-.065-1h-19.87zM22 42c0 .338.023.672.065 1h19.87c.042-.328.065-.662.065-1v-3H22v3zM32 51c3.468 0 6.52-1.59 8.313-4H23.687c1.792 2.41 4.845 4 8.313 4zM6.46 29.1c-.85.353-1.65.872-2.344 1.565-.693.693-1.212 1.492-1.565 2.344-.365.883-.55 1.823-.55 2.763 0 .943.185 1.883.55 2.767.354.854.873 1.652 1.566 2.345.692.693 1.493 1.212 2.344 1.566.88.364 1.815.55 2.752.55h.03c.936 0 1.87-.186 2.75-.55.855-.354 1.652-.873 2.345-1.565.692-.692 1.213-1.49 1.566-2.345L22 23 6.46 29.1zm7.595 8.675c-.264.637-.646 1.207-1.133 1.695-.487.486-1.057.867-1.696 1.13-.637.266-1.305.4-2.014.4-.682 0-1.35-.134-1.982-.395-.644-.27-1.215-.65-1.7-1.136-.486-.486-.866-1.057-1.13-1.696-.267-.64-.4-1.312-.4-2.003 0-.685.133-1.356.398-1.996.266-.64.647-1.21 1.132-1.696.485-.485 1.057-.866 1.66-1.117l11.273-4.424-4.408 11.24zM61.45 33.008c-.355-.852-.873-1.65-1.566-2.344-.692-.692-1.493-1.212-2.345-1.566L42 23l6.098 15.54c.354.854.874 1.652 1.566 2.345.692.692 1.49 1.212 2.344 1.564.88.364 1.815.55 2.75.55h.031c.936 0 1.872-.186 2.75-.55.852-.353 1.652-.872 2.345-1.565.693-.692 1.212-1.49 1.565-2.345.366-.884.552-1.823.55-2.767 0-.94-.185-1.88-.55-2.765zm-1.85 4.767c-.263.64-.644 1.21-1.13 1.696-.484.484-1.056.866-1.693 1.133-.64.263-1.307.397-2.018.397-.68 0-1.35-.134-1.988-.4-.637-.262-1.206-.643-1.693-1.13-.488-.487-.87-1.058-1.12-1.66l-4.423-11.274 11.236 4.41c.64.266 1.212.647 1.697 1.132.486.486.867 1.057 1.13 1.694.267.642.4 1.313.4 2.003 0 .687-.133 1.36-.4 2zM27 21c2.21 0 4-1.79 4-4s-1.79-4-4-4-4 1.79-4 4 1.79 4 4 4zm0-6c1.103 0 2 .896 2 2s-.897 2-2 2-2-.896-2-2 .897-2 2-2zM37 21c2.21 0 4-1.79 4-4s-1.79-4-4-4-4 1.79-4 4 1.79 4 4 4zm0-6c1.103 0 2 .896 2 2s-.897 2-2 2-2-.896-2-2 .897-2 2-2z"/></svg>

<?xml version="1.0" encoding="iso-8859-1"?>
<!-- Generator: Adobe Illustrator 20.0.0, SVG Export Plug-In . SVG Version: 6.00 Build 0)  -->
<svg version="1.1" id="Layer_1" xmlns="http://www.w3.org/2000/svg" xmlns:xlink="http://www.w3.org/1999/xlink" x="0px" y="0px"
	 viewBox="0 0 64 64" style="enable-background:new 0 0 64 64;" xml:space="preserve">
<g>
	<path d="M23.687,27h16.627c-1.793-2.411-4.846-4-8.313-4S25.479,24.589,23.687,27z"/>
	<path d="M22.065,31C22.023,31.328,22,31.662,22,32v3h20v-3c0-0.338-0.023-0.672-0.065-1H22.065z"/>
	<path d="M22,42c0,0.338,0.023,0.672,0.065,1h19.869C41.977,42.672,42,42.338,42,42v-3H22V42z"/>
	<path d="M32,51c3.468,0,6.52-1.589,8.313-4H23.687C25.479,49.411,28.532,51,32,51z"/>
	<path d="M6.461,29.099c-0.852,0.354-1.652,0.873-2.345,1.566c-0.693,0.693-1.212,1.492-1.565,2.344
		C2.185,33.893,1.999,34.833,2,35.773c-0.001,0.943,0.185,1.883,0.551,2.767c0.353,0.854,0.872,1.652,1.565,2.345
		c0.692,0.693,1.493,1.212,2.344,1.566C7.339,42.814,8.275,43,9.212,43c0.005,0,0.01,0,0.015,0c0.005,0,0.01,0,0.015,0
		c0.936,0,1.871-0.186,2.751-0.551c0.854-0.353,1.651-0.872,2.344-1.564c0.692-0.692,1.213-1.491,1.566-2.345L22,23L6.461,29.099z
		 M14.055,37.775c-0.264,0.637-0.646,1.207-1.133,1.695c-0.487,0.486-1.057,0.867-1.696,1.131C10.589,40.866,9.921,41,9.212,41
		c-0.682,0-1.35-0.134-1.982-0.395c-0.644-0.269-1.215-0.65-1.7-1.136c-0.486-0.485-0.866-1.056-1.131-1.695
		C4.133,37.135,4,36.462,4,35.771c-0.001-0.686,0.133-1.357,0.398-1.997c0.266-0.64,0.647-1.21,1.132-1.696
		c0.485-0.485,1.057-0.866,1.661-1.117l11.272-4.425L14.055,37.775z"/>
	<path d="M61.449,33.008c-0.354-0.852-0.872-1.65-1.565-2.344c-0.692-0.692-1.493-1.212-2.345-1.566L42,23l6.098,15.54
		c0.354,0.854,0.874,1.652,1.566,2.345c0.692,0.692,1.49,1.212,2.344,1.564C52.888,42.814,53.823,43,54.759,43
		c0.005,0,0.01,0,0.015,0c0.005,0,0.01,0,0.015,0c0.937,0,1.873-0.186,2.752-0.549c0.851-0.354,1.651-0.873,2.344-1.566
		c0.693-0.692,1.212-1.49,1.565-2.345c0.366-0.884,0.552-1.823,0.551-2.767C62.001,34.833,61.815,33.893,61.449,33.008z
		 M59.601,37.775c-0.264,0.639-0.645,1.209-1.132,1.696c-0.483,0.483-1.055,0.865-1.692,1.132C56.138,40.866,55.47,41,54.759,41
		c-0.68,0-1.348-0.134-1.987-0.399c-0.637-0.263-1.206-0.644-1.693-1.13c-0.487-0.488-0.869-1.059-1.119-1.661l-4.423-11.274
		l11.236,4.409c0.641,0.267,1.212,0.648,1.697,1.133c0.486,0.486,0.867,1.057,1.131,1.694c0.266,0.642,0.4,1.313,0.399,2.003
		C60,36.462,59.867,37.135,59.601,37.775z"/>
	<path d="M27,21c2.209,0,4-1.79,4-4s-1.791-4-4-4s-4,1.79-4,4S24.791,21,27,21z M27,15c1.103,0,2,0.896,2,2s-0.897,2-2,2
		s-2-0.896-2-2S25.897,15,27,15z"/>
	<path d="M37,21c2.209,0,4-1.79,4-4s-1.791-4-4-4s-4,1.79-4,4S34.791,21,37,21z M37,15c1.103,0,2,0.896,2,2s-0.897,2-2,2
		s-2-0.896-2-2S35.897,15,37,15z"/>
</g>
</svg>
